packages/admin/admin-icons/icons/save.svg

<svg xmlns="http://www.w3.org/2000/svg" width="16" height="16" viewBox="0 0 16 16"><path fill="#242424" fill-rule="evenodd" d="M11.5,0 C11.6060866,0 11.7086972,0.0337141889 11.7935072,0.0952091774 L11.8535534,0.146446609 L15.8535534,4.14644661 C16.0488155,4.34170876 16.0488155,4.65829124 15.8535534,4.85355339 C15.679987,5.02711974 15.4105626,5.04640489 15.2156945,4.91140884 L15.1464466,4.85355339 L11.293,1 L1,1 L1,15 L15,15 L15,8.5 C15,8.25454011 15.1768752,8.05039163 15.4101244,8.00805567 L15.5,8 C15.7454599,8 15.9496084,8.17687516 15.9919443,8.41012437 L16,8.5 L16,15.5 C16,15.7454599 15.8231248,15.9496084 15.5898756,15.9919443 L15.5,16 L0.5,16 C0.254540111,16 0.0503916296,15.8231248 0.00805566941,15.5898756 L0,15.5 L0,0.5 C0,0.254540111 0.176875161,0.0503916296 0.410124368,0.00805566941 L0.5,0 L11.5,0 Z M8,7.5 C9.38071187,7.5 10.5,8.61928813 10.5,10 C10.5,11.3807119 9.38071187,12.5 8,12.5 C6.61928813,12.5 5.5,11.3807119 5.5,10 C5.5,8.61928813 6.61928813,7.5 8,7.5 Z M8,8.5 C7.17157288,8.5 6.5,9.17157288 6.5,10 C6.5,10.8284271 7.17157288,11.5 8,11.5 C8.82842712,11.5 9.5,10.8284271 9.5,10 C9.5,9.17157288 8.82842712,8.5 8,8.5 Z M10,3 C10.2761424,3 10.5,3.22385763 10.5,3.5 C10.5,3.74545989 10.3231248,3.94960837 10.0898756,3.99194433 L10,4 L3,4 C2.72385763,4 2.5,3.77614237 2.5,3.5 C2.5,3.25454011 2.67687516,3.05039163 2.91012437,3.00805567 L3,3 L10,3 Z"/></svg>

<svg width="16" height="16" fill="none" viewBox="0 0 16 16">
  <path fill="#242424" fill-rule="evenodd" d="M11.5.001a.5.5 0 0 1 .293.095l.06.051 4 4a.5.5 0 0 1-.637.765l-.07-.057L11.293 1H1v14h14V8.5a.5.5 0 0 1 .41-.492L15.5 8a.5.5 0 0 1 .492.41L16 8.5v7a.5.5 0 0 1-.41.492L15.5 16H.5a.5.5 0 0 1-.492-.41L0 15.5V.5A.5.5 0 0 1 .41.009L.5.001h11Z M10 3.001a.5.5 0 0 1 .09.992L10 4H3a.5.5 0 0 1-.09-.992L3 3.001h7Z M8 7.501a2.5 2.5 0 1 0 0 5 2.5 2.5 0 0 0 0-5Zm0 1a1.5 1.5 0 1 1 0 3 1.5 1.5 0 0 1 0-3Z" clip-rule="evenodd"/>
</svg>
